packages/ffe-icons/icons/filled/sm/severe_cold.svg

<svg xmlns="http://www.w3.org/2000/svg" height="20" viewBox="0 -960 960 960" width="20"><path d="M780-562.001q-10.769 0-18.384-7.615T754.001-588q0-9.384 7.615-17.692 7.615-8.307 18.384-8.307 9.384 0 17.692 8.307 8.307 8.308 8.307 17.692 0 10.769-8.307 18.384-8.308 7.615-17.692 7.615ZM406.001-249.233l-96.925 96.925q-8.307 8.307-18.576 8.307t-18.576-7.923q-7.923-8.307-7.923-18.576t7.923-18.192l134.077-134.077v-83.232h-83.232L189.076-272.308q-8.307 8.307-18.576 8.307t-18.576-7.923q-7.923-8.307-7.923-18.576t7.923-18.192l97.309-97.309H131q-9.384 0-17.192-7.615-7.807-7.615-7.807-18.384 0-9.384 7.615-17.692 7.615-8.307 18.384-8.307h117.233l-96.925-95.925q-8.307-8.307-8.307-18.576t7.923-18.192q8.307-8.307 18.576-8.307t18.192 8.307l134.077 132.693h83.232v-83.232L272.308-673.924q-8.307-8.307-8.307-18.576t7.923-18.192q8.307-8.307 18.576-8.307t18.192 8.307l97.309 95.925V-732q0-9.384 7.615-17.692 7.615-8.307 18.384-8.307 9.384 0 17.692 8.307 8.307 8.308 8.307 17.692v117.233l95.925-95.925q8.307-8.307 18.576-8.307t18.192 8.307q8.307 7.923 8.307 18.192t-8.307 18.576L457.999-541.231v83.232H732q9.384 0 17.692 8.307 8.307 8.308 8.307 17.692 0 10.769-8.307 18.384-8.308 7.615-17.692 7.615H614.767l95.925 96.925q8.307 8.307 8.307 18.576t-8.307 18.576q-7.923 7.923-18.192 7.923t-18.576-7.923L541.231-406.001h-83.232v83.232l132.693 133.693q8.307 8.307 8.307 18.576t-8.307 18.576q-7.923 7.923-18.192 7.923t-18.576-7.923l-95.925-97.309V-131q0 9.384-8.307 17.192-8.308 7.807-17.692 7.807-10.769 0-18.384-7.615T406.001-132v-117.233ZM780-677.385q-10.769 0-18.384-7.615t-7.615-18.384V-828q0-9.384 7.615-17.692 7.615-8.307 18.384-8.307 9.384 0 17.692 8.307 8.307 8.308 8.307 17.692v125.616q0 9.384-8.307 17.191-8.308 7.808-17.692 7.808Z"/></svg>

<svg xmlns="http://www.w3.org/2000/svg" height="20" viewBox="0 -960 960 960" width="20"><path d="M780-562q-10.77 0-18.38-7.62Q754-577.23 754-588q0-9.38 7.62-17.69Q769.23-614 780-614q9.38 0 17.69 8.31T806-588q0 10.77-8.31 18.38Q789.38-562 780-562ZM406-249.23l-96.92 96.92Q300.77-144 290.5-144q-10.27 0-18.58-7.92-7.92-8.31-7.92-18.58 0-10.27 7.92-18.19L406-322.77V-406h-83.23L189.08-272.31Q180.77-264 170.5-264q-10.27 0-18.58-7.92-7.92-8.31-7.92-18.58 0-10.27 7.92-18.19L249.23-406H131q-9.38 0-17.19-7.62Q106-421.23 106-432q0-9.38 7.62-17.69Q121.23-458 132-458h117.23l-96.92-95.92Q144-562.23 144-572.5q0-10.27 7.92-18.19 8.31-8.31 18.58-8.31 10.27 0 18.19 8.31L322.77-458H406v-83.23L272.31-673.92Q264-682.23 264-692.5q0-10.27 7.92-18.19 8.31-8.31 18.58-8.31 10.27 0 18.19 8.31L406-614.77V-732q0-9.38 7.62-17.69Q421.23-758 432-758q9.38 0 17.69 8.31T458-732v117.23l95.92-95.92q8.31-8.31 18.58-8.31 10.27 0 18.19 8.31 8.31 7.92 8.31 18.19 0 10.27-8.31 18.58L458-541.23V-458h274q9.38 0 17.69 8.31T758-432q0 10.77-8.31 18.38Q741.38-406 732-406H614.77l95.92 96.92q8.31 8.31 8.31 18.58 0 10.27-8.31 18.58-7.92 7.92-18.19 7.92-10.27 0-18.58-7.92L541.23-406H458v83.23l132.69 133.69q8.31 8.31 8.31 18.58 0 10.27-8.31 18.58-7.92 7.92-18.19 7.92-10.27 0-18.58-7.92L458-249.23V-131q0 9.38-8.31 17.19Q441.38-106 432-106q-10.77 0-18.38-7.62Q406-121.23 406-132v-117.23Zm374-428.16q-10.77 0-18.38-7.61-7.62-7.62-7.62-18.38V-828q0-9.38 7.62-17.69Q769.23-854 780-854q9.38 0 17.69 8.31T806-828v125.62q0 9.38-8.31 17.19-8.31 7.8-17.69 7.8Z"/></svg>
